X:1
T:Title
%%score { 1 | 2 }
L:1/8
M:4/4
K:Ab
V:1 treble nm="Grand Piano"
V:2 bass 
V:1
 z4 z2[Q:1/4=106] [CA]>[DB] | [Ec]2 [CA]>[CA] [DA]2 [DF]2 | [CE]4 [CA]2 [EA]>B | c2 e2 c2 [EA]2 | %4
[M:3/4] B6 |[M:1/4] Bc |[M:4/4] d2 d>d e2 d2 | [Ec]4 [CA]2 [CA]>[Ec] | [EB]2 [EG]2 [B,E]2 [=DF]2 | %9
[M:3/4] E6 |[M:1/4] EE |[M:4/4] d3 c B2 [Ge]d | c3 [DB] [CA]4 | ABAF [CE]2 [Ec]2 | [EB]6 z2 | %15
 [Ge][GB][Ac][Bd] c4 |[M:9/8] cAB c [Fd]2- [Fd]AF |[M:4/4] E2 E2 G2 G2 |[M:3/4] [CA]6 |] %19
V:2
 z4 z2 [A,,E,]>[A,,E,] | [A,,A,]2 [A,,E,]>[A,,E,] [D,F,]2 [D,A,]2 | %2
 [A,,A,]4 [A,,E,]2 [C,A,]>[E,G,E] | [A,E]2 [A,CE]2 [A,E]2 [C,A,]2 |[M:3/4] [E,G,E]6 | %5
[M:1/4] [E,G,E][E,A,E] |[M:4/4] [E,B,E]2 [E,B,E]>[E,E] [E,CE]2 [E,B,E]2 | %7
 [A,,A,]4 [A,,E,]2 [A,,E,]>[A,,A,] | [B,,G,]2 [B,,B,]2 [B,,G,]2 [B,,A,]2 |[M:3/4] [E,G,]6 | %10
[M:1/4] [E,G,][E,G,] |[M:4/4] [E,B,E]3 [E,A,E] [E,G,E]2 [E,B,][G,B,E] | [A,E]3 [A,,E,] [A,,E,]4 | %13
 [D,F,D][D,F,D][D,F,D][D,A,D] [A,,A,]2 [A,,A,]2 | [E,G,]6 z2 | %15
 [E,B,][E,E][E,E][E,E][K:treble] [A,EA]4 | %16
[M:9/8] [A,E_G][A,CG][A,B,G] [A,G][K:bass] [D,A,]2- [D,A,][D,F,D][D,A,D] | %17
[M:4/4] [E,A,C]2 [E,C]2 [E,B,D]2 [E,D]2 |[M:3/4] [A,,E,]6 |] %19

